dist/svgs/core-ui-icons/brand/cib-gg.svg

<svg xmlns="http://www.w3.org/2000/svg" width="32" height="32" viewBox="0 0 32 32">
  <path d="M11.2 14.4l6.4 6.4-6.4 6.4-11.2-11.2 11.2-11.2 2.8 2.8-1.6 1.6-1.2-1.2-8 8 8 8 3.219-3.219-4.819-4.781zM20.8 4.8l-6.4 6.4 6.4 6.4 1.6-1.6-4.819-4.781 3.219-3.219 8 8-8 8-1.2-1.2-1.6 1.6 2.8 2.8 11.2-11.2z"/>
</svg>

<svg xmlns="http://www.w3.org/2000/svg" viewBox="0 0 32 32"><path d="M11.2 14.4l6.4 6.4-6.4 6.4L0 16 11.2 4.8 14 7.6l-1.6 1.6L11.2 8l-8 8 8 8 3.219-3.219L9.6 16zm9.6-9.6l-6.4 6.4 6.4 6.4 1.6-1.6-4.819-4.781L20.8 8l8 8-8 8-1.2-1.2-1.6 1.6 2.8 2.8L32 16z"/></svg>
